X:1
T:164 - Revivificação
T:Letra: Henry Maxwell Wright (1849-1931)
T:Música: SALVATION ARMY MUSIC 
M:3/4
L:1/8
Q:1/4=90
K:Abmaj
V:1
EE | "Ab/Eb"A3G "Eb7"BA | "Ab"c4 cd | "Eb7"B3E Bc | "Ab"A2 z2 EE | "Ab/Eb"A3G "Eb7"BA | "Ab"c4 cd | "Eb"B3B "Bb7"c=d | "Eb"e2 z2 || ee | "Db"f3e dc | "Bbm"d4 dd | "Eb"e3d cB | "Ab"c2 z2 e2- | ed cB AG | "Db"F4 "Ab"EA | "Ab/Eb"A3G "Eb7"BA | "Ab"c4 z2 | "Ab7"e2 "Db"d4 | d2 "Ab"c4 | "Eb7"cB =AB Hdc | "Ab"A4 |]
w: 1.~Tu, que so-brea a-mar-ga cruz Re-ve-las-te teua-mor, Tu, que vi-ves, ó Je-sus, Vi-vi-fi-ca-nos, Se-nhor! Vem, oh, vem, Je-sus, Se-nhor,    Nos-sas al-mas des-per-tar!    Com_ teu pu-roe san-toa-mor,    Vem, oh, vem nos in-fla-mar,    Oh, vem, oh, vem    Nos-sas al-mas in-fla-mar!
w: 2.~Eis o mun-do ten-ta-dor Pro-cu-ran-do nos tra-ir! Sem teu fo-goa-bra-sa-dor Pres-toes-ta-mos a ca-ir.
w: 3.~Quan-tos que cor-ri-am bem Já não mais Con-ti-go vão! Ou-tros se-guem, mas tam-bém fri-os, sem a-mor es-tão.
w: 4.~Vem a-go-ra con-su-mir Tu-do quan-to,ó Sal-va-dor, Quer, al-ti-vo, re-sis-tir Ao teu bran-doe do-cea-mor!
W: 
W:
W: 1. Tu, que sobre a amarga cruz
W: Revelaste teu amor,
W: Tu, que vives, ó Jesus,
W: Vivifica-nos, Senhor!
W:
W:    (Estribilho) 
W:    Vem, oh, vem, Jesus, Senhor,
W:    Nossas almas despertar!
W:    Com teu puro e santo amor,
W:    Vem, oh, vem nos inflamar,
W:    Oh, vem, oh,vem
W:    Nossas almas inflamar!
W:       
W: 2. Eis o mundo tentador
W: Procurando nos trair!
W: Sem teu fogo abrasador
W: Presto estamos a cair.
W: 
W:
W:
W: 3. Quantos que corriam bem
W: Já não mais Contigo vão!
W: Outros seguem, mas também
W: frios, sem amor estão.
W: 
W: 4. Vem agora consumir
W: Tudo quanto, ó Salvador,
W: Quer, altivo, resistir
W: Ao teu brando e doce amor!
W:           
W:





